X:1
T:Title
%%score { ( 1 3 ) | 2 }
L:1/8
M:4/4
K:C
V:1 treble nm="Grand Piano"
V:3 treble 
V:2 bass 
V:1
 z4 z2[Q:1/4=100] [CE]>[DF] | [EG]2 [EG]>[FA] [EG]2 [_E^F]>[EA] |[M:3/4] [Ec]2 [_Ec]>[EA] [=EG]2 | %3
[M:1/4] [CE]>[DF] |[M:4/4] [EG]2 [EG]>[Ec] [Ec]2 [FA][EG] |[M:3/4] z2 z2 D2 |[M:1/4] G>G | %7
[M:4/4] A2 F>A [Ac]2 [Gc]>[Gd] |[M:3/4] [Ge]2 [Ge]>[^F_e] [G=e]2 |[M:1/4] [Ac]>[FA] | %10
[M:4/4] [EG]2 [_E^F][EA] [=Ec]2 [Gc]>[Ad] |[M:7/8] e2 d>d [Ec]3 |[M:1/4] [EG]>[EG] | %13
[M:4/4] z2 CC [Ac]2 [Ac][Ad] | [Ge]2 [EG]>[FA] [EG]2 [Ge]>[Ge] | [Gd]4 z4 |[M:3/4] z2 z2 G2 | %17
[M:1/4] G>G |[M:4/4] A2 F>A [Ac]2 [Gc]>[Gd] |[M:3/4] [Ge]2 [Ge]>[^F_e] [G=e]2 |[M:1/4] [Ac]>[FA] | %21
[M:4/4] [EG]2 [_E^F][EA] [=Ec]2 [Gc]>[Ad] |[M:15/8] e2 d-d/d/ [Ec]2- [Ec] z2 z6 |] %23
V:2
 z4 z2 [C,G,]>[C,C] | [C,C]2 [C,C]>[C,C] [C,C]2 [C,A,]>[C,^F,] | %2
[M:3/4] [C,G,]2 [C,^F,]>[C,F,] [C,G,]2 |[M:1/4] [C,G,]>[C,G,] | %4
[M:4/4] [C,C]2 [C,C]>[C,G,] [C,G,]2 [C,C][C,C] |[M:3/4] [C,G,]2 [G,,G,]>[G,,G,] [G,B,]2 | %6
[M:1/4] [E,G,C]>[E,G,C] |[M:4/4] [F,C]2 [F,A,C]>[F,CF] [F,C]2 [E,C]>[G,B,] | %8
[M:3/4] [C,C]2 [C,C]>[C,C] [C,C]2 |[M:1/4] [C,C]>[C,C] | %10
[M:4/4] [C,C]2 [C,A,][C,^F,] [C,G,]2 [E,C]>[F,C] |[M:7/8] [G,CG]2 [G,,B,F]>[G,,B,F] [C,C]3 | %12
[M:1/4] [C,C]>[C,C] |[M:4/4] [F,C]2 F,F, [F,F]2 [F,F][F,C] | %14
 [C,C]2 [C,C]>[C,C] [C,C]2 [C,C]>[C,C] | [D,B,]2 D,D, [D,D]2 [D,A,][D,A,] | %16
[M:3/4] [D,D]2 [D,D]D, G,2 |[M:1/4] [E,G,C]>[E,G,C] | %18
[M:4/4] [F,C]2 [F,A,C]>[F,CF] [F,C]2 [E,C]>[G,B,] |[M:3/4] [C,C]2 [C,C]>[C,C] [C,C]2 | %20
[M:1/4] [C,C]>[C,C] |[M:4/4] [C,C]2 [C,A,][C,^F,] [C,G,]2 [E,C]>[F,C] | %22
[M:15/8] [G,CG]2 [G,,B,F]-[G,,B,F]/[G,,B,F]/ [C,C]2- [C,C] z2 z6 |] %23
V:3
 x8 | x8 |[M:3/4] x6 |[M:1/4] x2 |[M:4/4] x8 |[M:3/4] [CE]2 [B,D]>[CE] z F, |[M:1/4] x2 | %7
[M:4/4] x8 |[M:3/4] x6 |[M:1/4] x2 |[M:4/4] x8 |[M:7/8] x7 |[M:1/4] x2 |[M:4/4] [FA]4 z4 | x8 | %15
 z2 B,B, [^FA]2 [Fc][Fc] |[M:3/4] [GB]2 [^FB][CFA] z F, |[M:1/4] x2 |[M:4/4] x8 |[M:3/4] x6 | %20
[M:1/4] x2 |[M:4/4] x8 |[M:15/8] x15 |] %23

